static/img/kroki/a115fadd0826f3e7ef783e87ef6ef47f.svg

<?xml version="1.0" encoding="us-ascii" standalone="no"?><svg xmlns="http://www.w3.org/2000/svg" xmlns:xlink="http://www.w3.org/1999/xlink" contentStyleType="text/css" height="152px" preserveAspectRatio="none" style="width:477px;height:152px;" version="1.1" viewBox="0 0 477 152" width="477px" zoomAndPan="magnify"><defs/><g><!--class gcp_vertex_ai_endpoint--><g id="elem_gcp_vertex_ai_endpoint"><rect codeLine="23" fill="#3D176E" height="39.7891" id="gcp_vertex_ai_endpoint" rx="2.5" ry="2.5" style="stroke:#000D19;stroke-width:0.5;" width="240" x="118.5" y="7"/><ellipse cx="133.5" cy="26.8945" fill="#ADD1B2" rx="11" ry="11" style="stroke:#181818;stroke-width:1.0;"/><path d="M136.4688,32.5352 Q135.8906,32.832 135.25,32.9727 Q134.6094,33.1289 133.9063,33.1289 Q131.4063,33.1289 130.0781,31.4883 Q128.7656,29.832 128.7656,26.707 Q128.7656,23.582 130.0781,21.9258 Q131.4063,20.2695 133.9063,20.2695 Q134.6094,20.2695 135.25,20.4258 Q135.9063,20.582 136.4688,20.8789 L136.4688,23.5977 Q135.8438,23.0195 135.25,22.7539 Q134.6563,22.4727 134.0313,22.4727 Q132.6875,22.4727 132,23.5508 Q131.3125,24.6133 131.3125,26.707 Q131.3125,28.8008 132,29.8789 Q132.6875,30.9414 134.0313,30.9414 Q134.6563,30.9414 135.25,30.6758 Q135.8438,30.3945 136.4688,29.8164 L136.4688,32.5352 Z " fill="#000000"/><text fill="#D9B8FF" font-family="Helvetica" font-size="17" lengthAdjust="spacing" textLength="198" x="152.5" y="32.7798">gcp_vertex_ai_endpoint</text></g><!--class gcp_vertex_ai_model_deployment_monitoring_job--><g id="elem_gcp_vertex_ai_model_deployment_monitoring_job"><rect codeLine="26" fill="#3D176E" height="39.7891" id="gcp_vertex_ai_model_deployment_monitoring_job" rx="2.5" ry="2.5" style="stroke:#000D19;stroke-width:0.5;" width="463" x="7" y="106.79"/><ellipse cx="22" cy="126.6845" fill="#ADD1B2" rx="11" ry="11" style="stroke:#181818;stroke-width:1.0;"/><path d="M24.9688,132.3252 Q24.3906,132.622 23.75,132.7627 Q23.1094,132.9189 22.4063,132.9189 Q19.9063,132.9189 18.5781,131.2783 Q17.2656,129.622 17.2656,126.497 Q17.2656,123.372 18.5781,121.7158 Q19.9063,120.0595 22.4063,120.0595 Q23.1094,120.0595 23.75,120.2158 Q24.4063,120.372 24.9688,120.6689 L24.9688,123.3877 Q24.3438,122.8095 23.75,122.5439 Q23.1563,122.2627 22.5313,122.2627 Q21.1875,122.2627 20.5,123.3408 Q19.8125,124.4033 19.8125,126.497 Q19.8125,128.5908 20.5,129.6689 Q21.1875,130.7314 22.5313,130.7314 Q23.1563,130.7314 23.75,130.4658 Q24.3438,130.1845 24.9688,129.6064 L24.9688,132.3252 Z " fill="#000000"/><text fill="#D9B8FF" font-family="Helvetica" font-size="17" lengthAdjust="spacing" textLength="421" x="41" y="132.5698">gcp_vertex_ai_model_deployment_monitoring_job</text></g><!--link gcp_vertex_ai_endpoint to gcp_vertex_ai_model_deployment_monitoring_job--><g id="link_gcp_vertex_ai_endpoint_gcp_vertex_ai_model_deployment_monitoring_job"><path codeLine="29" d="M238.5,47.22 C238.5,64.36 238.5,83.27 238.5,100.41 " fill="none" id="gcp_vertex_ai_endpoint-to-gcp_vertex_ai_model_deployment_monitoring_job" style="stroke:#1A83AF;stroke-width:2.0;"/><polygon fill="#1A83AF" points="238.5,106.41,242.5,97.41,238.5,101.41,234.5,97.41,238.5,106.41" style="stroke:#1A83AF;stroke-width:2.0;"/></g><!--SRC=[bP9FIyD04CNl-HGBFHSIYwQz2B5Gz5B4UXC9c-nikpQx4sQdhLNyxgPMPKtw1w_pVllclM4NHe40M_DMMB05a8_yqhXQahGY8yBD62iaqTDQwa7Q5YVe-2mmbHR4BLHhO5FADl6uCENIWVVY8f1kPBcS4wwSsjipIUSR2Hm7rBYItcVCP8eLGn16ZOgXrcsoRTeRg2IzWWw6f82-aJYELJ9g8sTNdUpzIypC6uWaFDeK6JenEok-g9CfTqGGibFqHp-QyLugPTnSN0QpXtqcSa1_vhE5LBZPqLfMFbpZ6GYGjpMCEwrWD5GwFGZV7OEZSdSwCI_hV0t4y9fBauDJDHh7uZsAFWuI5XLKkOAwmgrjlb0pS8QHciZv2nRxXqTC-q-z91iEiibp__f_jj4d]--></g></svg>

<svg xmlns="http://www.w3.org/2000/svg" width="477" height="152" viewBox="0 0 477 152"><rect width="240" height="39.789" x="118.5" y="7" fill="#3D176E" rx="2.5" ry="2.5" style="stroke:#000d19;stroke-width:.5"/><circle cx="133.5" cy="26.895" r="11" fill="#ADD1B2" style="stroke:#181818;stroke-width:1"/><path d="M136.469 32.535q-.578.297-1.219.438-.64.156-1.344.156-2.5 0-3.828-1.64-1.312-1.657-1.312-4.782t1.312-4.781q1.328-1.656 3.828-1.656.703 0 1.344.156.656.156 1.219.453v2.719q-.625-.578-1.219-.844-.594-.281-1.219-.281-1.344 0-2.031 1.078-.687 1.062-.687 3.156t.687 3.172q.688 1.062 2.031 1.062.625 0 1.219-.265.594-.281 1.219-.86z"/><text x="152.5" y="32.78" fill="#D9B8FF" font-family="Helvetica" font-size="17" textLength="198">gcp_vertex_ai_endpoint</text><rect width="463" height="39.789" x="7" y="106.79" fill="#3D176E" rx="2.5" ry="2.5" style="stroke:#000d19;stroke-width:.5"/><circle cx="22" cy="126.684" r="11" fill="#ADD1B2" style="stroke:#181818;stroke-width:1"/><path d="M24.969 132.325q-.578.297-1.219.438-.64.156-1.344.156-2.5 0-3.828-1.64-1.312-1.657-1.312-4.782t1.312-4.781q1.328-1.656 3.828-1.656.703 0 1.344.156.656.156 1.219.453v2.719q-.625-.579-1.219-.844-.594-.281-1.219-.281-1.343 0-2.031 1.078-.687 1.062-.687 3.156t.687 3.172q.688 1.062 2.031 1.062.625 0 1.219-.265.594-.281 1.219-.86z"/><text x="41" y="132.57" fill="#D9B8FF" font-family="Helvetica" font-size="17" textLength="421">gcp_vertex_ai_model_deployment_monitoring_job</text><path fill="none" d="M238.5 47.22v53.19" style="stroke:#1a83af;stroke-width:2"/><path fill="#1A83AF" d="m238.5 106.41 4-9-4 4-4-4z" style="stroke:#1a83af;stroke-width:2"/></svg>
